data/styles/clear/style-clear/symbols/veterinary-m.svg

<svg height="24" viewBox="0 0 24 24" width="24"><g fill="none" fill-rule="evenodd"><circle cx="12" cy="12" fill="#fff" opacity=".6" r="12"/><circle cx="12" cy="12" fill="#c15746" r="11"/><path d="m16.5199493 11.8735873c-.4056854.250309-.7108436.5665699-.9166664.9491686-.1009246.2101978-.1625126.4068967-.1847637.5904824-.030198.228325-.0039734.449322.0778789.6637624.1199971.2680504.3047608.4612782.5550858.5792976.1585392.0798366.3405216.134218.5463443.16353.2896619.0254551.6031642-.0212126.9389176-.1384606.2256898-.0979638.4386649-.2225397.6389248-.3733422.2670134-.2121263.4680681-.4477793.6027669-.7069591l.0921831-.1936133c.0504623-.1045205.0862231-.234496.1064875-.3887697.0448996-.2557085.0238405-.4925186-.063972-.7100445-.1104609-.2557085-.284099-.4493219-.5217091-.5796831-.1494004-.0871647-.3222438-.1403891-.5185304-.1604447-.3047608-.0362543-.6150844.0019285-.9309707.1141625-.1442349.0547672-.2852911.118405-.4219766.1909137zm.3138997-4.39872744c-.1962866-.06903745-.3905865-.09372124-.5832971-.07327999-.2542984.0123419-.5097889.08253641-.7676634.20942648-.265424.12689008-.5217092.30931867-.7680608.5469001-.2042334.2086551-.3774743.44777926-.5217091.71814383-.0695348.14308881-.1168184.25647994-.1430429.33978772-.0592039.17047235-.0997327.3471157-.1203945.53070132-.0278139.25570858.0039735.50756028.0949646.75594088.1104609.2919629.3059528.5118029.5860785.6587485.1585392.0798366.332972.1303613.5213118.1523452.2320474.0177415.4871404-.0161987.7652794-.103749.2542984-.0906357.5038288-.2310248.7485911-.4215528.3385348-.2630365.5999854-.5773691.7847491-.94376895.1120502-.20518402.185161-.41268203.218935-.6232656.0580119-.27190729.0643693-.52838723.0194698-.76982549-.0762895-.38954097-.2773443-.67996111-.6023694-.87048907l-.0111256-.01619873-.199068-.0898644zm-8.53171291 4.51867514c-.26343731.0740514-.51813309.1720152-.76488205.2938914-.3508524.1831999-.63773283.3899266-.86024397.62018-.14940034.1469457-.28688044.3274459-.41204296.5407292-.09933533.1762576-.16887006.3509725-.21019355.5256874-.11602367.485962-.04768097.9537969.20463078 1.4035046.15337375.2472235.36158061.4473935.6250179.6012815l.14026148.0736657.49071655.1874424c.17204878.0431967.46051859.1006636.86620408.1712438l.81256297.1546593.4009174.1280472c.21655103.0979637.37350086.1758719.47084948.2337245.1923132.1145482.4009174.2584084.6250179.4323519.1644993.130747.4056855.3278315.7227639.5904824.1946973.1469457.3496604.2460665.4656841.2965911l.0417208.0192842.0166883.0161987.2074122.095264h.019867l.0754949.0327832.2431729.0566956c.2300606.0416538.4676707.0435823.712433.0057852.3381374-.0617095.63217-.1847427.8828924-.369871.2670134-.2067268.4700548-.4770913.6079323-.8110938.0806602-.1847426.1366853-.4018829.1684726-.6502634.0298007-.2919629.0174831-.5777548-.0369527-.8569901-.0592038-.3336168-.1577445-.6548917-.2940326-.963439-.117613-.2449094-.2109882-.5083316-.2801256-.7914238-.067548-.2865633-.1188051-.5615561-.1541684-.8245927l-.1041035-.739742c-.0504624-.2630367-.1124476-.4917473-.1879425-.6857464-.1382747-.3247461-.3397267-.5920252-.6051508-.8026087-.1716514-.1288185-.3691301-.244138-.5912438-.345573-.1831744-.0728943-.377077-.117248-.5828998-.1334467-.2376101-.0088708-.5030341.0335546-.796272.1280471-.1978759.0763655-.3909839.1596732-.5797209.2499233-.1740356.0856219-.4251553.2206113-.75375658.405354-.33972686.1885996-.62779925.3355453-.86342267.440837-.23919953.1211049-.47998834.2109692-.72355856.2711359zm2.14166971-5.1172569c-.0580118.16468712-.1076795.33438814-.149003.50871736-.0540384.34634434-.0532437.65874848.0027814.93836947.0448996.27036457.1450296.51874515.2999927.74552741.1366855.18859952.2900592.32474601.4625053.40843946.2014521.1122341.4223738.16314442.661176.15234523.1942999-.0107991.3933679-.06633761.5972039-.16584415.2912513-.16121598.5324374-.38259865.7227639-.66414806.0858257-.11069134.1672808-.24490942.2439676-.40265422l.1231758-.35907192c.0655613-.19939869.1072822-.41268201.1235732-.63907859.0091388-.35752919-.0472836-.69191732-.1712541-1.00393577-.0822497-.2017128-.2006574-.37835613-.3560178-.53070136-.1871478-.18667111-.4025068-.30006225-.6476664-.33978771-.235226-.04898189-.4780016-.0242981-.7283266.07327999-.2109882.08330777-.4048909.20942648-.5801184.37797044-.2149616.20325552-.3913812.45086473-.5300533.74282762zm-2.09081003.3232033c-.24833832-.06132378-.49508729-.04242526-.73984954.05746693-.2038361.08716461-.38621577.22408247-.54674166.41075359-.06913739.08369346-.13628807.17857175-.2018494.28579193l-.02821123.03008337-.11761303.24490942-.05602513.18474269c-.07668688.250309-.10847418.49984662-.09536192.74822719.00953619.28270643.06079322.53417248.15456578.75362678.10648747.2665077.25310642.4851906.43985685.655663.15496311.1346038.32860126.2314105.52131182.2911915.26542399.0709659.52965598.0516817.79309327-.0570812.20542547-.0833078.39058656-.2236968.55508587-.4215528.09893798-.1126197.19350518-.2618795.28250968-.44855057l.10092467-.26110816c.06357464-.19978437.09615663-.38722691.09814331-.56309885.01867506-.37565633-.04291291-.72701457-.18476371-1.05561744-.10489811-.22485385-.24595433-.41268201-.42316857-.56271314-.16807534-.15388796-.35164703-.25030899-.55190706-.29273424z" fill="#fff"/></g></svg>

<svg width="24" height="24" viewBox="0 0 24 24">
  <g fill="none" fill-rule="evenodd">
    <circle cx="12" cy="12" r="12" fill="#FFF" opacity=".6"/>
    <circle cx="12" cy="12" r="11" fill="#C15746"/>
    <path fill="#FFF" d="M16.5199493,11.8735873 C16.1142639,12.1238963 15.8091057,12.4401572 15.6032829,12.8227559 C15.5023583,13.0329537 15.4407703,13.2296526 15.4185192,13.4132383 C15.3883212,13.6415633 15.4145458,13.8625603 15.4963981,14.0770007 C15.6163952,14.3450511 15.8011589,14.5382789 16.0514839,14.6562983 C16.2100231,14.7361349 16.3920055,14.7905163 16.5978282,14.8198283 C16.8874901,14.8452834 17.2009924,14.7986157 17.5367458,14.6813677 C17.7624356,14.5834039 17.9754107,14.458828 18.1756706,14.3080255 C18.442684,14.0958992 18.6437387,13.8602462 18.7784375,13.6010664 L18.8706206,13.4074531 C18.9210829,13.3029326 18.9568437,13.1729571 18.9771081,13.0186834 C19.0220077,12.7629749 19.0009486,12.5261648 18.9131361,12.3086389 C18.8026752,12.0529304 18.6290371,11.859317 18.391427,11.7289558 C18.2420266,11.6417911 18.0691832,11.5885667 17.8728966,11.5685111 C17.5681358,11.5322568 17.2578122,11.5704396 16.9419259,11.6826736 C16.797691,11.7374408 16.6566348,11.8010786 16.5199493,11.8735873 L16.5199493,11.8735873 L16.5199493,11.8735873 Z M16.833849,7.47485986 C16.6375624,7.40582241 16.4432625,7.38113862 16.2505519,7.40157987 C15.9962535,7.41392177 15.740763,7.48411628 15.4828885,7.61100635 C15.2174645,7.73789643 14.9611793,7.92032502 14.7148277,8.15790645 C14.5105943,8.36656155 14.3373534,8.60568571 14.1931186,8.87605028 C14.1235838,9.01913909 14.0763002,9.13253022 14.0500757,9.215838 C13.9908718,9.38631035 13.950343,9.5629537 13.9296812,9.74653932 C13.9018673,10.0022479 13.9336547,10.2540996 14.0246458,10.5024802 C14.1351067,10.7944431 14.3305986,11.0142831 14.6107243,11.1612287 C14.7692635,11.2410653 14.9436963,11.29159 15.1320361,11.3135739 C15.3640835,11.3313154 15.6191765,11.2973752 15.8973155,11.2098249 C16.1516139,11.1191892 16.4011443,10.9788001 16.6459066,10.7882721 C16.9844414,10.5252356 17.245892,10.210903 17.4306557,9.84450315 C17.5427059,9.63931913 17.6158167,9.43182112 17.6495907,9.22123755 C17.7076026,8.94933026 17.71396,8.69285032 17.6690605,8.45141206 C17.592771,8.06187109 17.3917162,7.77145095 17.0666911,7.58092299 L17.0555655,7.56472426 L16.8564975,7.47485986 L16.833849,7.47485986 L16.833849,7.47485986 L16.833849,7.47485986 Z M8.30213609,11.993535 C8.03869878,12.0675864 7.784003,12.1655502 7.53725404,12.2874264 C7.18640164,12.4706263 6.89952121,12.677353 6.67701007,12.9076064 C6.52760973,13.0545521 6.39012963,13.2350523 6.26496711,13.4483356 C6.16563178,13.6245932 6.09609705,13.7993081 6.05477356,13.974023 C5.93874989,14.459985 6.00709259,14.9278199 6.25940434,15.3775276 C6.41277809,15.6247511 6.62098495,15.8249211 6.88442224,15.9788091 L7.02468372,16.0524748 L7.51540027,16.2399172 C7.68744905,16.2831139 7.97591886,16.3405808 8.38160435,16.411161 L9.19416732,16.5658203 L9.59508472,16.6938675 C9.81163575,16.7918312 9.96858558,16.8697394 10.0659342,16.927592 C10.2582474,17.0421402 10.4668516,17.1860004 10.6909521,17.3599439 C10.8554514,17.4906909 11.0966376,17.6877754 11.413716,17.9504263 C11.6084133,18.097372 11.7633764,18.1964928 11.8794001,18.2470174 L11.9211209,18.2663016 L11.9378092,18.2825003 L12.1452214,18.3777643 L12.1650884,18.3777643 L12.2405833,18.4105475 L12.4837562,18.4672431 C12.7138168,18.5088969 12.9514269,18.5108254 13.1961892,18.4730283 C13.5343266,18.4113188 13.8283592,18.2882856 14.0790816,18.1031573 C14.346095,17.8964305 14.5491364,17.626066 14.6870139,17.2920635 C14.7676741,17.1073209 14.8236992,16.8901806 14.8554865,16.6418001 C14.8852872,16.3498372 14.8729696,16.0640453 14.8185338,15.78481 C14.75933,15.4511932 14.6607893,15.1299183 14.5245012,14.821371 C14.4068882,14.5764616 14.313513,14.3130394 14.2443756,14.0299472 C14.1768276,13.7433839 14.1255705,13.4683911 14.0902072,13.2053545 L13.9861037,12.4656125 C13.9356413,12.2025758 13.8736561,11.9738652 13.7981612,11.7798661 C13.6598865,11.45512 13.4584345,11.1878409 13.1930104,10.9772574 C13.021359,10.8484389 12.8238803,10.7331194 12.6017666,10.6316844 C12.4185922,10.5587901 12.2246896,10.5144364 12.0188668,10.4982377 C11.7812567,10.4893669 11.5158327,10.5317923 11.2225948,10.6262848 C11.0247189,10.7026503 10.8316109,10.785958 10.6428739,10.8762081 C10.4688383,10.96183 10.2177186,11.0968194 9.88911732,11.2815621 C9.54939046,11.4701617 9.26131807,11.6171074 9.02569465,11.7223991 C8.78649512,11.843504 8.54570631,11.9333683 8.30213609,11.993535 L8.30213609,11.993535 L8.30213609,11.993535 Z M10.4438058,6.8762781 C10.385794,7.04096522 10.3361263,7.21066624 10.2948028,7.38499546 C10.2407644,7.7313398 10.2415591,8.04374394 10.2975842,8.32336493 C10.3424838,8.5937295 10.4426138,8.84211008 10.5975769,9.06889234 C10.7342624,9.25749186 10.8876361,9.39363835 11.0600822,9.4773318 C11.2615343,9.5895659 11.482456,9.64047622 11.7212582,9.62967703 C11.9155581,9.61887793 12.1146261,9.56333942 12.3184621,9.46383288 C12.6097134,9.3026169 12.8508995,9.08123423 13.041226,8.79968482 C13.1270517,8.68899348 13.2085068,8.5547754 13.2851936,8.3970306 L13.4083694,8.03795868 C13.4739307,7.83855999 13.5156516,7.62527667 13.5319426,7.39888009 C13.5410814,7.0413509 13.484659,6.70696277 13.3606885,6.39494432 C13.2784388,6.19323152 13.1600311,6.01658819 13.0046707,5.86424296 C12.8175229,5.67757185 12.6021639,5.56418071 12.3570043,5.52445525 C12.1217783,5.47547336 11.8790027,5.50015715 11.6286777,5.59773524 C11.4176895,5.68104301 11.2237868,5.80716172 11.0485593,5.97570568 C10.8335977,6.1789612 10.6571781,6.42657041 10.518506,6.7185333 L10.4438058,6.8762781 L10.4438058,6.8762781 L10.4438058,6.8762781 Z M8.35299577,7.1994814 C8.10465745,7.13815762 7.85790848,7.15705614 7.61314623,7.25694833 C7.40931013,7.34411294 7.22693046,7.4810308 7.06640457,7.66770192 C6.99726718,7.75139538 6.9301165,7.84627367 6.86455517,7.95349385 L6.83634394,7.98357722 L6.71873091,8.22848664 L6.66270578,8.41322933 C6.5860189,8.66353833 6.5542316,8.91307595 6.56734386,9.16145652 C6.57688005,9.44416295 6.62813708,9.695629 6.72190964,9.9150833 C6.82839711,10.181591 6.97501606,10.4002739 7.16176649,10.5707463 C7.3167296,10.7053501 7.49036775,10.8021568 7.68307831,10.8619378 C7.9485023,10.9329037 8.21273429,10.9136195 8.47617158,10.8048566 C8.68159705,10.7215488 8.86675814,10.5811598 9.03125745,10.3833038 C9.13019543,10.2706841 9.22476263,10.1214243 9.31376713,9.93475323 L9.4146918,9.67364507 C9.47826644,9.4738607 9.51084843,9.28641816 9.51283511,9.11054622 C9.53151017,8.73488989 9.4699222,8.38353165 9.3280714,8.05492878 C9.22317329,7.83007493 9.08211707,7.64224677 8.90490283,7.49221564 C8.73682749,7.33832768 8.5532558,7.24190665 8.35299577,7.1994814 L8.35299577,7.1994814 L8.35299577,7.1994814 Z"/>
  </g>
</svg>
